!!!!SEGMENT: pl-kk--kk-i-350--006_anonim--quae-est-ista.krn
!!!cenid: 17xx:2066
!!!COM: Anonim
!!!COM-rismid: pe30004985
!!!CDT:
!!!CNT:
!!!OTL: Quae est ista
!!!PDT:
!!!AGN: Sacred
!!!SMS-siglum: PL-Kk
!!!SMS-shelfmark: Kk.I.350
!!!SMS-shelfwork: 006 W
!!!SMS-variant:
!!!SMS-altvar:
!!!NIFC-rismid: 1001145764
!!!URL-scan: http://repozytorium.nifc.pl/skany/pl-kk-nut--i-350
!!!ONB-nifc: UWAGA: utwory w zbiorze: 1. Gaudeamus, 2. Alleluia assumpta est Maria, 3. Surge propera, 4. Gaudeamus, 5. Propter veritatem, 6. Quae est ista, 7. Gaudeamus omnes, 8. Alleluia assumpta est Maria, 9. Nigra sum
!!!AIN: 1 alto 1 empty 1 tenor 1 vox
!!!key:
**kern	**text	**kern	**text	**kern	**text	**kern	**text
*part4	*part4	*part3	*part3	*part2	*part2	*part1	*part1
*staff4	*staff4	*staff3	*staff3	*staff2	*staff2	*staff1	*staff1
*Iempty	*	*Itenor	*	*Ialto	*	*Ivox	*
*I"Baſso Eripieno	*	*I"Tenore	*	*I"Alto	*	*I"Canto	*
*I'B rip	*	*I'T.	*	*I'A.	*	*I'C.	*
*clefF4	*	*clefC4	*	*clefC3	*	*clefC1	*
*k[b-]	*	*k[b-]	*	*k[b-]	*	*k[b-]	*
*F:	*	*F:	*	*F:	*	*F:	*
*M2/2	*	*M2/2	*	*M2/2	*	*M2/2	*
*met(c|)	*	*met(c|)	*	*met(c|)	*	*met(c|)	*
=1	=1	=1	=1	=1	=1	=1	=1
*2\right	*	*	*	*2\right	*	*2\right	*
2F\	Qua	2A/	Qua	2f\	Qua	2cc\	Qua
4F\	est	4A/	est	4c/	est	2cc\	est
4E\	.	4G/	.	4B-/	.	.	.
=2	=2	=2	=2	=2	=2	=2	=2
4F\	i-	4F/	i-	4A/	i-	4cc\	i-
4C\	.	4GT/	.	4B-T/	.	4b-\	.
2F\	-sta	2A/	-sta	2c/	-sta	2a\	-sta
=3	=3	=3	=3	=3	=3	=3	=3
4F\	qua	4B-\	qua	4d\	qua	4b-\	qua
4F\	pro-	4F/	pro-	4B-\	pro-	4b-\	pro-
4F\	-gre-	4d\	-gre-	4f\	-gre-	4b-\	-gre-
4F\	-di-	4B-\	-di-	4d\	-di-	4b-\	-di-
=4	=4	=4	=4	=4	=4	=4	=4
*	*	*2\right	*	*	*	*	*
2F\	-tur	2A\	-tur	2c/	-tur	2cc\	-tur
2r	.	2r	.	2r	.	2r	.
=5	=5	=5	=5	=5	=5	=5	=5
2F\	qua-	2f\	qua-	2a\	qua-	2cc\	qua-
4F\	-si	8e\L	-si	8g\L	-si	4cc\	-si
.	.	8d\J	.	8f\J	.	.	.
8F\L	au-	8c\L	au-	8e\L	au-	4cc\	au-
8E\J	.	8B-\J	.	8d\J	.	.	.
!LO:LB:g=original	!	!LO:LB:g=original	!	!LO:LB:g=original	!	!LO:LB:g=original	!
=6	=6	=6	=6	=6	=6	=6	=6
4F\	-ro-	4A\	-ro-	4c/	-ro-	4cc\	-ro-
4C\	.	4B-\	.	4d/	.	4b-\	.
4F\	-ra	4A\	-ra	4c/	-ra	4cc\	-ra
4E\	con-	4G/	con-	4B-/	con-	4cc\	con
=7	=7	=7	=7	=7	=7	=7	=7
4F\	-sur-	4F/	-sur-	4A/	-sur-	4cc\	sur-
4FF/	.	4A/	.	4c/	.	4a\	.
4AA/	.	2A/	.	2f\	.	4f\	.
4C/	.	.	.	.	.	4a\	.
=8	=8	=8	=8	=8	=8	=8	=8
4F\	.	2A/	.	2f\	.	1cc\	.
4A\	.	.	.	.	.	.	.
4c\	.	2G/	.	2e\	.	.	.
4C/	.	.	.	.	.	.	.
=9	=9	=9	=9	=9	=9	=9	=9
2F\	-gens	2A\	-gens	2f\	-gens,	2cc\	-gens,
4A\	qua	4A\	qua	4f\	qua	4cc\	qua
4F\	est	4c\	est	4a\	est	4ff\	est
=10	=10	=10	=10	=10	=10	=10	=10
4c\	i-	2c\	is-	2g\	is-	2ee\	is-
8G\L	.	.	.	.	.	.	.
8E\J	.	.	.	.	.	.	.
2C/	-sta	2c\	-ta	2g\	-ta	2ee\	-ta
=11	=11	=11	=11	=11	=11	=11	=11
4C/	qua	4c\	qua	4g\	qua	4ee\	qua
4C/	pro-	4c\	pro-	4a\	pro-	4ff\	pro-
!LO:LB:g=original	!	!	!	!	!	!	!
4E\	-gre-	4c\	-gre-	4b-\	-gre-	4gg\	-gre-
4C\	-di-	4c\	-di-	4g\	-di-	4ee\	-di-
!	!	!LO:LB:g=original	!	!LO:LB:g=original	!	!	!
=12	=12	=12	=12	=12	=12	=12	=12
2F\	-tur	2c\	-tur	2a\	-tur	2ff\	-tur
[2F\	qua-	[2c\	qua-	[2a\	qua-	2ff\	qua-
!	!	!	!	!	!	!LO:LB:g=original	!
=13	=13	=13	=13	=13	=13	=13	=13
2F\]	.	2c\]	.	2a\]	.	2cc\	.
4E\	-si	4B-\	-si	4g\	-si	4cc\	-si
4E\	au-	4B-\	au-	4g\	au-	4cc\	au-
=14	=14	=14	=14	=14	=14	=14	=14
2E\	-ro-	2B-\	-ro-	2g\	-ro-	2cc\	-ro-
4F\	-ra	4A\	-ra	4f\	-ra	4cc\	-ra
4E\	con	4G\	con	4e\	con	4cc\	con
=15	=15	=15	=15	=15	=15	=15	=15
2F\	sur-	4A\	sur-	4f\	sur-	1cc\	sur-
.	.	4c\	.	4a\	.	.	.
4E\	.	4B-\	.	4g\	.	.	.
4F\	.	4A\	.	4f\	.	.	.
=16	=16	=16	=16	=16	=16	=16	=16
2C/	-gens	2G/	-gens	2e\	-gens	2cc\	-gens
2r	.	2r	.	2r	.	2r	.
=17	=17	=17	=17	=17	=17	=17	=17
4F\	pul-	8c\L	pul-	2c\	pul-	2a\	pul-
.	.	8B-\	.	.	.	.	.
4A\	.	8A\	.	.	.	.	.
.	.	8B-\J	.	.	.	.	.
!LO:LB:g=original	!	!	!	!	!	!	!
4F\	-chra	4A/	-chra	4e-X\	-chra	4cc\	-chra
4A\	ut	4F/	ut	4e-\	ut	4cc\	ut
!	!	!LO:LB:g=original	!	!	!	!	!
=18	=18	=18	=18	=18	=18	=18	=18
4B-\	lu-	2F/	lu-	8f\L	lu-	8dd\L	lu-
.	.	.	.	8e\	.	8cc\	.
4F\	.	.	.	8d\	.	8b-\	.
.	.	.	.	8e\J	.	8cc\J	.
2BB-/	-na	2F/	-na	2d\	-na	2b-\	-na
!	!	!	!	!LO:LB:g=original	!	!	!
=19	=19	=19	=19	=19	=19	=19	=19
4G\	pul-	8d\L	pul-	2d\	pul-	2bn\	pul-
.	.	8c\	.	.	.	.	.
4Bn\	.	8Bn\	.	.	.	.	.
.	.	8c\J	.	.	.	.	.
4G\	-chra	4B\	-chra	4f\	-chra	4dd\	-chra
4B\	ut	4G/	ut	4f\	ut	4dd\	ut
!	!	!	!	!	!	!LO:LB:g=original	!
=20	=20	=20	=20	=20	=20	=20	=20
4c\	lu-	2G/	lu-	8g\L	lu-	8ee\L	lu-
.	.	.	.	8f\	.	8dd\	.
4G\	.	.	.	8en\	.	8cc\	.
.	.	.	.	8f\J	.	8dd\J	.
2C/	-na	2G/	-na	2e\	-na	2cc\	-na
=21	=21	=21	=21	=21	=21	=21	=21
4E\	e-	2c\	e-	4b-\	e-	4gg\	e-
4F\	.	.	.	4a\	.	4ff\	.
4C\	.	4B-X\	.	4g\	.	4ee\	.
4F\	.	4A\	.	4f\	.	4dd\	.
=22	=22	=22	=22	=22	=22	=22	=22
1C/	-lec-	2G/	-lec-	2e\	-lec-	1cc\	-lec-
.	.	4A/	.	4f\	.	.	.
.	.	4B-/	.	4g\	.	.	.
=23	=23	=23	=23	=23	=23	=23	=23
4F\	-ta	2A/	-ta	2f\	-ta	2cc\	-ta
4A\	.	.	.	.	.	.	.
4c\	ut	2G/	ut	2e\	ut	2cc\	ut
4C/	.	.	.	.	.	.	.
!LO:LB:g=original	!	!LO:LB:g=original	!	!	!	!	!
=24	=24	=24	=24	=24	=24	=24	=24
2F\	sol	2A/	sol	2f\	sol	2cc\	sol
4r	.	4r	.	4r	.	4r	.
4F\	ter-	4A\	ter-	4f\	ter-	4cc\	ter-
!	!	!	!	!LO:LB:g=original	!	!	!
=25	=25	=25	=25	=25	=25	=25	=25
4F\	-ri-	4c\	-ri-	4a\	-ri-	4a\	-ri-
8A\	-bi-	8c\	-bi-	8a\	-bi-	8cc\	-bi-
8F\	-lis	8c\	-lis	8a\	-lis	8a\	-lis
8F\L	ut	4c\	ut	4a\	ut	8a\L	ut
8G\J	.	.	.	.	.	8b-\J	.
8A\L	cas-	8B-\L	cas-	8g\L	cas-	4cc\	cas-
8B-\J	.	8A\J	.	8f\J	.	.	.
=26	=26	=26	=26	=26	=26	=26	=26
4c\	-tro-	4A\	-tro-	4f\	-tro-	4cc\	-tro-
4C/	-rum	4G\	-rum	4e\	-rum	4cc\	-rum
!	!	!	!	!	!	!LO:LB:g=original	!
4r	.	4r	.	4r	.	4r	.
4C/	ter-	4c\	ter-	4g\	ter-	4ee\	ter-
=27	=27	=27	=27	=27	=27	=27	=27
4E\	-ri-	4c\	-ri-	4b-\	-ri-	4gg\	-ri-
8E\	-bi-	8c\	-bi-	8b-\	-bi-	8gg\	-bi-
8E\	-lis	8c\	-lis	8b-\	-lis	8gg\	-lis
4E\	ut	4c\	ut	4b-\	ut	4gg\	ut
4C\	cas-	4c\	cas-	8a\L	cas-	8ff\L	cas-
.	.	.	.	8g\J	.	8ee\J	.
=28	=28	=28	=28	=28	=28	=28	=28
4F\	-tro-	4B-\	tro-	4g\	-tro-	4cc\	-tro-
4F\	-rum	4A\	-rum	4f\	-rum	4cc\	-rum
!LO:LB:g=original	!	!	!	!	!	!	!
[2F\	a-	2c\	a-	2a\	a-	2a\	a-
!	!	!LO:LB:g=original	!	!	!	!	!
=29	=29	=29	=29	=29	=29	=29	=29
!LO:TX:a:t=P:mixedbeam:problem	!	!	!	!	!	!	!
8F\L]	.	4.c\	.	4.a\	.	4.a\	.
8FF/J	.	.	.	.	.	.	.
8AA/	.	.	.	.	.	.	.
8C/	-ci-	8B-\	-ci-	8g\	-ci-	8b-\	-ci-
2F\	-es	2A\	-es	2f\	-es	2cc\	-es
!	!	!	!	!LO:LB:g=original	!	!	!
=30	=30	=30	=30	=30	=30	=30	=30
2C/	or-	4G\	or-	4e\	or-	4b-\	or-
.	.	4A\	.	4f\	.	4a\	.
2C/	-di-	4B-\	.	4g\	.	4g\	.
.	.	4G\	-di-	4e\	-di-	4b-\	-di-
=31	=31	=31	=31	=31	=31	=31	=31
4F\	-na-	4A\	-na-	4f\	-na-	4cc\	-na-
4E\	.	4B-\	.	4g\	.	4b-\	.
4F\	.	4c\	.	4a\	.	4a\	.
4BB-/	.	8B-\L	.	8g\L	.	4cc\	.
.	.	8A\J	.	8f\J	.	.	.
!	!	!	!	!	!	!LO:LB:g=original	!
=32	=32	=32	=32	=32	=32	=32	=32
1C/	.	2B-\	.	2g\	.	1cc\	.
.	.	2G/	.	2e\	.	.	.
=33	=33	=33	=33	=33	=33	=33	=33
2F\	-ta	2A\	-ta	2f\	-ta	2cc\	-ta
4r	.	4r	.	4r	.	4r	.
4F\	ter-	4A\	ter-	4f\	ter-	4cc\	ter-
=34	=34	=34	=34	=34	=34	=34	=34
4F\	-ri-	4c\	-ri-	4a\	-ri-	4a\	-ri-
8A\	-bi-	8c\	-bi-	8a\	-bi-	8cc\	-bi-
8F\	-lis	8c\	-lis	8a\	-lis	8a\	-lis
!	!	!LO:LB:g=original	!	!	!	!	!
8F\L	ut	4c\	ut	4a\	ut	8a\L	ut
8G\J	.	.	.	.	.	8b-\J	.
!LO:LB:g=original	!	!	!	!	!	!	!
8A\L	cas-	8B-\L	cas-	8g\L	cas-	4cc\	cas-
8B-\J	.	8A\J	.	8f\J	.	.	.
!	!	!	!	!LO:LB:g=original	!	!	!
=35	=35	=35	=35	=35	=35	=35	=35
4c\	-tro-	4A\	-tro-	4f\	-tro-	4cc\	-tro-
4C/	-rum,	4G\	-rum	4e\	-rum	4cc\	-rum
4r	.	4r	.	4r	.	4r	.
4C/	ter-	4c\	ter-	4g\	ter-	4ee\	ter-
=36	=36	=36	=36	=36	=36	=36	=36
4E\	-ri-	4c\	-ri-	4b-\	-ri-	4gg\	-ri-
8E\	-bi-	8c\	-bi-	8b-\	-bi-	8gg\	-bi-
8E\	-lis	8c\	-lis	8b-\	-lis	8gg\	-lis
4E\	ut	4c\	ut	4b-\	ut	4gg\	ut
4C\	cas-	4c\	cas-	8a\L	cas-	8ff\L	cas-
.	.	.	.	8g\J	.	8ee\J	.
!	!	!	!	!	!	!LO:LB:g=original	!
=37	=37	=37	=37	=37	=37	=37	=37
4F\	-tro-	4B-\	tro-	4g\	-tro-	4cc\	-tro-
4F\	-rum	4A\	-rum	4f\	-rum	4cc\	-rum
2F\	a-	2c\	a-	2a\	a-	2a\	a-
=38	=38	=38	=38	=38	=38	=38	=38
!LO:TX:a:t=P:problem=mixedbeam	!	!	!	!	!	!	!
8F\L	.	4.c\	.	4.a\	.	4.a\	.
8FF/J	.	.	.	.	.	.	.
8AA/	.	.	.	.	.	.	.
8C/	-ci-	8B-\	-ci-	8g\	-ci-	8b-\	-ci-
2F\	-es	2A\	-es	2f\	-es	2cc\	-es
!LO:LB:g=original	!	!LO:LB:g=original	!	!	!	!	!
=39	=39	=39	=39	=39	=39	=39	=39
2C/	or-	4G\	or-	4e\	or-	4b-\	or-
.	.	4A\	.	4f\	.	4a\	.
2C/	-di-	4B-\	.	4g\	.	4g\	.
.	.	4G\	-di-	4e\	-di-	4b-\	-di-
!	!	!	!	!LO:LB:g=original	!	!	!
=40	=40	=40	=40	=40	=40	=40	=40
4F\	-na-	4A\	-na-	4f\	-na-	4cc\	-na-
4E\	.	4B-\	.	4g\	.	4b-\	.
4F\	.	4c\	.	4a\	.	4a\	.
4BB-/	.	8B-\L	.	8g\L	.	4cc\	.
.	.	8A\J	.	8f\J	.	.	.
=41	=41	=41	=41	=41	=41	=41	=41
1C/	.	2B-\	.	2g\	.	1cc\	.
.	.	2G/	.	2e\	.	.	.
=42	=42	=42	=42	=42	=42	=42	=42
2F\	-ta	2A/	-ta	2f\	-ta	2cc\	-ta
2r	.	2r	.	2r	.	2r	.
==	==	==	==	==	==	==	==
*-	*-	*-	*-	*-	*-	*-	*-
!!!system-decoration: [(s1,s2,s3,s4)]
!!!EED: Leszek Kubiak
!!!EEV: 2021-02-26
!!!ENC: Berenika Jozajtis
!!!END: 2021-02-18
